packages/core/assets/Icons/location_disabled.svg

<svg viewBox="0 0 20 20" fill="none" xmlns="http://www.w3.org/2000/svg">
<g clip-path="url(#clip0_93_545)">
<path d="M19.125 10.0417C19.125 10.2778 19.0451 10.4757 18.8854 10.6354C18.7257 10.7952 18.5278 10.875 18.2917 10.875H17.4583C17.4167 11.2361 17.3542 11.5799 17.2708 11.9063C17.1875 12.2327 17.0764 12.5556 16.9375 12.875C16.8542 13.0834 16.7014 13.2222 16.4792 13.2917C16.2569 13.3611 16.0486 13.3403 15.8542 13.2292C15.6597 13.1181 15.5278 12.9549 15.4583 12.7396C15.3889 12.5243 15.3958 12.3056 15.4792 12.0834C15.5903 11.7639 15.6771 11.434 15.7396 11.0938C15.8021 10.7535 15.8333 10.4028 15.8333 10.0417C15.8333 8.43058 15.2639 7.05558 14.125 5.91669C12.9861 4.7778 11.6111 4.20835 10 4.20835C9.63889 4.20835 9.28819 4.2396 8.94792 4.3021C8.60764 4.3646 8.27778 4.45141 7.95833 4.56252C7.73611 4.64585 7.51736 4.6528 7.30208 4.58335C7.08681 4.51391 6.92361 4.38196 6.8125 4.18752C6.70139 3.99308 6.68056 3.78474 6.75 3.56252C6.81944 3.3403 6.95833 3.18752 7.16667 3.10419C7.48611 2.9653 7.80903 2.85419 8.13542 2.77085C8.46181 2.68752 8.80556 2.62502 9.16667 2.58335V1.75002C9.16667 1.51391 9.24653 1.31599 9.40625 1.15627C9.56597 0.996548 9.76389 0.916687 10 0.916687C10.2361 0.916687 10.434 0.996548 10.5938 1.15627C10.7535 1.31599 10.8333 1.51391 10.8333 1.75002V2.58335C12.5694 2.7778 14.059 3.49655 15.3021 4.7396C16.5451 5.98266 17.2639 7.47224 17.4583 9.20835H18.2917C18.5278 9.20835 18.7257 9.28821 18.8854 9.44794C19.0451 9.60766 19.125 9.80558 19.125 10.0417ZM9.16667 18.3334V17.5C7.43056 17.3056 5.94097 16.5868 4.69792 15.3438C3.45486 14.1007 2.73611 12.6111 2.54167 10.875H1.70833C1.47222 10.875 1.27431 10.7952 1.11458 10.6354C0.954861 10.4757 0.875 10.2778 0.875 10.0417C0.875 9.80558 0.954861 9.60766 1.11458 9.44794C1.27431 9.28821 1.47222 9.20835 1.70833 9.20835H2.54167C2.61111 8.62502 2.74306 8.07294 2.9375 7.5521C3.13194 7.03127 3.375 6.5278 3.66667 6.04169L1.75 4.12502C1.59722 3.97224 1.52083 3.7778 1.52083 3.54169C1.52083 3.30558 1.59722 3.11113 1.75 2.95835C1.90278 2.80558 2.09722 2.72919 2.33333 2.72919C2.56944 2.72919 2.76389 2.80558 2.91667 2.95835L17.0625 17.1042C17.2292 17.2709 17.3125 17.4688 17.3125 17.6979C17.3125 17.9271 17.2292 18.125 17.0625 18.2917C16.8958 18.4445 16.6979 18.5243 16.4688 18.5313C16.2396 18.5382 16.0417 18.4584 15.875 18.2917L14 16.375C13.5139 16.6667 13.0104 16.9097 12.4896 17.1042C11.9688 17.2986 11.4167 17.4306 10.8333 17.5V18.3334C10.8333 18.5695 10.7535 18.7674 10.5938 18.9271C10.434 19.0868 10.2361 19.1667 10 19.1667C9.76389 19.1667 9.56597 19.0868 9.40625 18.9271C9.24653 18.7674 9.16667 18.5695 9.16667 18.3334ZM10 15.875C10.5 15.875 10.9861 15.816 11.4583 15.6979C11.9306 15.5799 12.375 15.4028 12.7917 15.1667L4.875 7.25002C4.63889 7.66669 4.46181 8.11113 4.34375 8.58335C4.22569 9.05558 4.16667 9.54169 4.16667 10.0417C4.16667 11.6528 4.73611 13.0278 5.875 14.1667C7.01389 15.3056 8.38889 15.875 10 15.875Z" fill="currentColor"/>
</g>
<defs>
<clipPath id="clip0_93_545">
<rect width="20" height="20" fill="currentColor"/>
</clipPath>
</defs>
</svg>

<svg xmlns="http://www.w3.org/2000/svg" width="20" height="20" fill="none" viewBox="0 0 20 20">
  <g clip-path="url(#a)">
    <path fill="#201F1F" d="M19.125 10.042c0 .236-.08.434-.24.593a.806.806 0 0 1-.593.24h-.834a7.744 7.744 0 0 1-.187 1.031c-.084.327-.195.65-.334.969a.689.689 0 0 1-.458.417.755.755 0 0 1-.625-.063.843.843 0 0 1-.396-.49.97.97 0 0 1 .021-.656c.111-.32.198-.649.26-.99.063-.34.094-.69.094-1.051 0-1.611-.57-2.986-1.708-4.125-1.139-1.14-2.514-1.709-4.125-1.709-.361 0-.712.032-1.052.094-.34.063-.67.15-.99.26a.97.97 0 0 1-.656.021.843.843 0 0 1-.49-.395.755.755 0 0 1-.062-.625.689.689 0 0 1 .417-.459c.32-.139.642-.25.968-.333.327-.083.67-.146 1.032-.188V1.75c0-.236.08-.434.24-.594.159-.16.357-.24.593-.24s.434.08.594.24c.16.16.24.358.24.594v.833c1.735.195 3.225.914 4.468 2.157 1.243 1.243 1.962 2.732 2.156 4.468h.834c.236 0 .434.08.593.24.16.16.24.358.24.594Zm-9.958 8.291V17.5c-1.736-.194-3.226-.913-4.47-2.156-1.242-1.243-1.96-2.733-2.155-4.469h-.834a.806.806 0 0 1-.593-.24.806.806 0 0 1-.24-.593c0-.236.08-.434.24-.594.16-.16.357-.24.593-.24h.834a7.13 7.13 0 0 1 .396-1.656c.194-.52.437-1.024.729-1.51L1.75 4.125a.79.79 0 0 1-.23-.583.79.79 0 0 1 .23-.584.79.79 0 0 1 .583-.229.79.79 0 0 1 .584.23l14.146 14.145c.166.167.25.365.25.594 0 .23-.084.427-.25.594a.891.891 0 0 1-.594.24.776.776 0 0 1-.594-.24L14 16.375a9.2 9.2 0 0 1-1.51.73 7.125 7.125 0 0 1-1.657.395v.833c0 .237-.08.434-.24.594a.807.807 0 0 1-.593.24.806.806 0 0 1-.594-.24.806.806 0 0 1-.24-.594ZM10 15.875c.5 0 .986-.059 1.458-.177a5.295 5.295 0 0 0 1.334-.531L4.875 7.25a5.297 5.297 0 0 0-.531 1.333 5.99 5.99 0 0 0-.177 1.459c0 1.61.57 2.986 1.708 4.125 1.139 1.139 2.514 1.708 4.125 1.708Z"/>
  </g>
  <defs>
    <clipPath id="a">
      <path fill="#fff" d="M0 0h20v20H0z"/>
    </clipPath>
  </defs>
</svg>
